Pods/ProtonCore-UIFoundations/libraries/UIFoundations/Sources/Assets.xcassets/Images/IconSet/ic-arrow-left.imageset/ic-arrow-left.svg

<svg width="24" height="24" viewBox="0 0 24 24" fill="none" xmlns="http://www.w3.org/2000/svg">
<path fill-rule="evenodd" clip-rule="evenodd" d="M12.4724 3.21962C12.7643 3.51361 12.7627 3.98862 12.4687 4.28058L5.45039 11.2504L20.2498 11.2504C20.6641 11.2504 21 11.5863 21 12.0007C21 12.415 20.6641 12.7509 20.2498 12.7509L5.45039 12.7509L12.4687 19.7207C12.7627 20.0127 12.7643 20.4877 12.4724 20.7817C12.1804 21.0757 11.7054 21.0773 11.4114 20.7854L3.31459 12.7444C3.14884 12.5798 3.04961 12.3738 3.01689 12.1597C3.00583 12.1084 3 12.0552 3 12.0007C3 11.9461 3.00582 11.8929 3.01689 11.8416C3.04961 11.6275 3.14884 11.4215 3.31459 11.2569L11.4114 3.21595C11.7054 2.92398 12.1804 2.92563 12.4724 3.21962Z" fill="#0C0C14"/>
</svg>

<svg xmlns="http://www.w3.org/2000/svg" width="24" height="24" viewBox="0 0 24 24">
  <g class="ic-arrow-left">
    <path fill-rule="evenodd" d="M12.472 3.22a.75.75 0 0 1-.003 1.06L5.45 11.25h14.8a.75.75 0 0 1 0 1.5H5.45l7.019 6.97a.75.75 0 0 1-1.058 1.065l-8.096-8.04a1.044 1.044 0 0 1-.298-.585.754.754 0 0 1 0-.318c.033-.215.132-.42.298-.585l8.096-8.041a.75.75 0 0 1 1.061.004Z" class="Icon"/>
  </g>
</svg>
